X:1
T:Spelsug
M:4/4
L:1/8
K:G
V:1
|: "A" v(g/f/)e (g/f/)e a2 uguf | "G" (g/f/)e (g/f/)e "Dadd9"de (c/B/)A | "A"(g/f/)e (g/f/)e a2 uguf | "G6"(g/f/)e de "Am"cA z2 :|
|| "Am"vAB cd ef ga | "A11"gf ed cB AG | "Am6"AB cd ef ga | "Em7"ba gf ed cB |
| "Fmaj"vAB cd ef ga | "G6"gf ed cB AG | "Fmaj"AB cd ef ga | "Em7"ba gf "G6" ed cB ||
|:"C"vcg zug (gc) c2 | "Bm7"Bf zuf "E11"(fB) B2 | "Am"Ae zue (ea) "D" f2 | "Em7"(g/f/)e de "Am"cA z2 :|

